svgs/light/lamp-floor.svg

<svg xmlns="http://www.w3.org/2000/svg" viewBox="0 0 384 512"><!-- Font Awesome Pro 6.0.0-alpha2 by @fontawesome - https://fontawesome.com License - https://fontawesome.com/license (Commercial License) --><path d="M381.395 179.375L312.762 19.375C307.762 7.625 296.26 0 283.385 0H100.615C87.74 0 76.238 7.625 71.238 19.375L2.606 179.375C-1.644 189.25 -0.644 200.625 5.233 209.625C11.233 218.625 21.233 224 31.985 224H176V480H80C71.156 480 64 487.156 64 496S71.156 512 80 512H304C312.844 512 320 504.844 320 496S312.844 480 304 480H208V224H352.016C362.768 224 372.768 218.625 378.77 209.625C384.645 200.625 385.645 189.25 381.395 179.375ZM32.016 191.99L100.615 32H283.358L352.016 192L32.016 191.99Z"/></svg>

<svg xmlns="http://www.w3.org/2000/svg" viewBox="0 0 384 512"><!--! Font Awesome Pro 6.3.0 by @fontawesome - https://fontawesome.com License - https://fontawesome.com/license (Commercial License) Copyright 2023 Fonticons, Inc. --><path d="M381.4 179.4l-68.63-160C307.8 7.625 296.3 0 283.4 0H100.6c-12.88 0-24.38 7.625-29.38 19.38l-68.63 160C-1.644 189.3-.6456 200.6 5.231 209.6C11.23 218.6 21.23 224 31.98 224H176v256h-96C71.16 480 64 487.2 64 496S71.32 512 80.16 512h223.7C312.7 512 320 504.8 320 496S312.8 480 304 480h-96V224h144c10.75 0 20.75-5.375 26.75-14.38C384.6 200.6 385.6 189.3 381.4 179.4zM32.02 191.1L100.6 32h182.7l68.66 160L32.02 191.1z"/></svg>
